X:1
T:Rex Terrarum, LM
T:Rex Terrarum, LM
T:Thomas Frederick Dunhill, 1903
T:Public Domain Courtesy of the Cyber Hymnal™
C:Thomas Frederick Dunhill, 1903
Z:Public Domain
Z:Courtesy of the Cyber Hymnal™
%%score ( 1 2 ) ( 3 4 )
L:1/8
Q:1/4=115
M:3/4
K:G
V:1 treble 
V:2 treble 
V:3 bass 
V:4 bass 
V:1
 G2 | (A2 B2) [Dd]2 | [EB]4 [CA]2 | G4 D2 | [CE]4 [DG]2 | [Ec]4 [EB]2 | E4 [EF]2 | (G2 B2) [GA]2 | %8
 [FA]4 [Gd]2 | [Ge]4 [Gd]2 | (B2 c2) [FB]2 | [EG]4 [EA]2 | [FB]4 [EG]2 | (A2 B2) [Dd]2 | %14
 [EB]4 [CA]2 | G6- | [EG]4 [CF]2 | [B,G]6- | [B,G]4 |] %19
V:2
 G2 | D4 x2 | x6 | (B,2 C2) D2 | x6 | x6 | E4 x2 | E4 x2 | x6 | x6 | G4 x2 | x6 | x6 | D4 x2 | x6 | %15
 B,2 C2 D2 | x6 | x6 | x4 |] %19
V:3
 [G,B,]2 | ([F,C]2 [G,B,]2) [B,,G,]2 | [C,G,]4 [D,F,]2 | G,4 [B,,G,]2 | [C,G,]4 [B,,G,]2 | %5
 (E,2 F,2) [E,^G,]2 | ([C,A,]2 [E,B,]2) [A,C]2 | (B,2 D2) [A,^C]2 | [D,D]4 [B,D]2 | C4 [B,D]2 | %10
 ([G,D]2 [E,C]2) [D,D]2 | B,4 [C,E]2 | [B,,^D]4 [E,E]2 | ([F,C]2 [G,B,]2) [B,,G,]2 | %14
 [C,G,]4 [D,F,]2 | G,6 | [C,C]4 A,2 | [G,,G,]6- | [G,,G,]4 |] %19
V:4
 x2 | x6 | x6 | (G,,2 A,,2) x2 | x6 | A,,4 x2 | x6 | E,4 x2 | x6 | C4 x2 | x6 | (E,2 D,2) x2 | x6 | %13
 x6 | x6 | E,4 B,,2 | x6 | x6 | x4 |] %19

